dressly/src/assets/brand/louis-vuitton.svg

<svg width="167" height="111" viewBox="0 0 167 111" fill="none" xmlns="http://www.w3.org/2000/svg">
<path d="M98.1352 18.5002C103.403 18.5002 108.672 18.4994 113.94 18.501C113.943 19.6838 113.934 20.8674 113.945 22.0509C112.607 22.1092 111.238 22.2586 110.006 22.817C108.756 23.377 107.708 24.3959 107.168 25.6576C100.762 40.6712 94.361 55.6862 87.9619 70.7028C87.8513 70.9495 87.7622 71.2046 87.6331 71.4429C85.3418 71.416 83.0497 71.439 80.7584 71.4306C79.7472 69.4273 78.7522 67.4156 77.7326 65.4169C76.5639 68.5394 75.3883 71.6589 74.2196 74.7807C81.7781 74.7814 89.3366 74.7806 96.8951 74.7814C98.2789 74.7998 99.7043 74.7423 100.999 74.203C103.15 73.3412 104.863 71.6757 106.257 69.8701C107.94 67.6822 109.217 65.2193 110.355 62.7165C111.631 62.7058 112.906 62.7203 114.182 62.718C111.763 67.8691 109.332 73.0156 106.892 78.1567C89.4741 78.1575 72.0573 78.1567 54.6398 78.1567C55.064 77.0528 55.4674 75.9397 55.9222 74.8473C55.9499 74.7347 56.0905 74.763 56.1758 74.7523C58.3503 74.7362 60.5394 74.652 62.6732 74.2007C63.7835 73.941 64.9322 73.5948 65.7866 72.8042C66.2384 72.3744 66.3791 71.747 66.5289 71.1678C68.5858 65.6797 70.6458 60.1923 72.7043 54.7049C68.3538 45.463 63.9886 36.2264 59.6358 26.9852C59.2854 26.177 58.8228 25.3765 58.0952 24.8502C56.5892 23.7256 54.6321 23.5831 52.8188 23.5111C52.8172 22.1865 52.8188 20.8628 52.818 19.5382C58.9335 19.5359 65.0482 19.5367 71.1637 19.5375C71.1645 20.862 71.1653 22.1865 71.163 23.5111C70.3661 23.5616 69.5202 23.5486 68.7987 23.9416C68.4406 24.1102 68.2301 24.5346 68.3223 24.9207C68.4352 25.5527 68.9362 26.0039 69.1898 26.5746C71.7723 32.1202 74.3548 37.6666 76.945 43.2099C78.2428 39.5918 79.5406 35.9744 80.8437 32.3585C81.035 31.8559 81.1027 31.2753 80.8844 30.7696C80.7131 30.3705 80.3243 30.1238 79.9409 29.9576C79.1956 29.6512 78.3765 29.6542 77.5866 29.5976C77.99 28.4798 78.3957 27.3621 78.8137 26.2506C78.9105 26.1885 79.045 26.236 79.1564 26.2207C85.361 26.2245 91.5664 26.2207 97.7718 26.223C97.343 27.3461 96.9166 28.4691 96.4925 29.5937C94.998 29.6627 93.4574 29.7002 92.0559 30.2824C91.4135 30.5505 90.8057 30.9604 90.4261 31.5533C90.1626 31.9877 89.9989 32.4726 89.8222 32.9461C87.2297 39.9955 84.6134 47.0357 82.0501 54.0959C83.47 57.2958 84.9499 60.4681 86.3983 63.6549C91.6578 51.2721 96.9158 38.8877 102.182 26.5072C102.536 25.7626 103.114 25.0831 103.16 24.2266C103.203 23.5563 102.705 22.9779 102.127 22.7029C100.881 22.1299 99.4814 22.1015 98.1352 22.0532C98.1337 20.8689 98.1337 19.6845 98.1352 18.5002ZM107.699 85.1747C109.36 86.8892 111.007 88.6151 112.651 90.3442C112.649 88.7369 112.658 87.1289 112.657 85.5217C112.941 85.5225 113.225 85.5194 113.51 85.5156C113.511 87.81 113.511 90.1051 113.51 92.3995C111.848 90.6935 110.211 88.9644 108.557 87.25C108.56 88.8672 108.554 90.4851 108.553 92.1031C108.268 92.1054 107.984 92.1046 107.699 92.1046C107.698 89.7941 107.698 87.4844 107.699 85.1747ZM59.3615 85.4107C61.191 85.1303 63.1265 86.5583 63.2894 88.4183C63.4431 89.4824 63.0289 90.5917 62.2475 91.3248C60.9628 92.5781 58.6523 92.5551 57.4052 91.2574C56.7313 90.6062 56.3471 89.6678 56.3879 88.7309C56.4063 87.1007 57.7579 85.6444 59.3615 85.4107ZM59.3622 86.2534C58.2973 86.4265 57.4306 87.3588 57.2815 88.4153C57.0786 89.6157 57.8217 90.9073 58.9842 91.2995C60.0015 91.6826 61.2394 91.3217 61.8925 90.4561C62.737 89.3997 62.594 87.6951 61.5552 86.818C60.9712 86.2886 60.1268 86.114 59.3622 86.2534ZM72.5729 85.7654C73.5103 85.0637 75.0417 85.354 75.5827 86.4143C75.3567 86.5414 75.1308 86.6694 74.9049 86.7965C74.4985 86.163 73.508 86.0082 72.9617 86.546C72.7304 86.7146 72.7558 87.0233 72.7804 87.2769C72.8465 87.6078 73.1999 87.748 73.4604 87.9035C74.132 88.2559 74.9388 88.4589 75.4105 89.0978C75.9369 89.811 75.85 90.8728 75.2761 91.5332C74.676 92.2571 73.5787 92.4333 72.7397 92.0541C72.0958 91.737 71.6977 91.0666 71.5687 90.3795C71.8568 90.3113 72.1465 90.2485 72.4354 90.1841C72.4646 90.8108 72.9525 91.4443 73.6164 91.4558C74.5123 91.5531 75.2246 90.3917 74.7029 89.6509C74.1458 88.8948 73.0716 88.8841 72.4308 88.2306C71.6762 87.6155 71.7523 86.2894 72.5729 85.7654ZM103.16 85.406C104.358 85.2566 105.597 85.8082 106.333 86.7536C107.394 88.0773 107.224 90.1894 105.965 91.3278C105.246 92.0364 104.188 92.3283 103.196 92.2233C102.215 92.159 101.296 91.6105 100.73 90.8168C100.12 89.9703 99.9617 88.8388 100.251 87.8437C100.628 86.5544 101.831 85.5746 103.16 85.406ZM103.013 86.2648C101.691 86.4893 100.746 87.8927 100.978 89.1981C101.125 90.4537 102.32 91.4756 103.584 91.4519C104.446 91.4664 105.268 90.9792 105.733 90.2668C106.439 89.2464 106.253 87.7387 105.343 86.8991C104.748 86.2977 103.828 86.0947 103.013 86.2648ZM53.5049 85.5172C53.7777 85.5157 54.0505 85.5157 54.3232 85.5172C54.324 87.4622 54.3225 89.4081 54.324 91.3531C55.0017 91.3547 55.6787 91.3531 56.3564 91.3539C56.3579 91.6037 56.3579 91.8534 56.3571 92.1039C55.4059 92.1047 54.4554 92.1054 53.5049 92.1039C53.5057 89.9083 53.5057 87.7128 53.5049 85.5172ZM63.951 85.5226C64.2399 85.5203 64.5288 85.521 64.8185 85.5218C64.8208 86.818 64.8146 88.115 64.8216 89.4111C64.8346 89.9811 64.9053 90.6078 65.3095 91.0467C65.9526 91.6757 67.2158 91.586 67.6645 90.7709C67.8912 90.3879 67.9573 89.9344 67.9511 89.4962C67.9458 88.1716 67.9458 86.8471 67.9465 85.5218C68.2354 85.5203 68.5244 85.521 68.8133 85.5218C68.8133 86.8739 68.8163 88.226 68.8125 89.5782C68.814 90.1918 68.7072 90.8406 68.3138 91.334C67.4678 92.5023 65.5069 92.5689 64.5803 91.465C64.14 91.0053 63.9587 90.3573 63.9525 89.7337C63.9487 88.3302 63.9518 86.926 63.951 85.5226ZM69.8805 85.5179C70.1648 85.5148 70.4499 85.5156 70.735 85.5171C70.735 87.7127 70.7357 89.9083 70.7342 92.1046C70.4499 92.1046 70.1648 92.1054 69.8798 92.1031C69.8813 89.9082 69.8813 87.7127 69.8805 85.5179ZM78.4364 85.5233C78.7491 85.5149 79.0634 85.5149 79.3769 85.5164C80.0331 87.1175 80.6793 88.7224 81.324 90.3281C81.9671 88.7278 82.6287 87.1351 83.2572 85.5294C83.5791 85.5026 83.9019 85.521 84.2246 85.5164C83.2649 87.8461 82.3013 90.1742 81.3332 92.5C80.3481 90.1826 79.3984 87.8499 78.4364 85.5233ZM84.6157 85.5157C84.9 85.5195 85.1843 85.5226 85.4693 85.5218C85.4793 86.7981 85.4678 88.0751 85.4786 89.3514C85.4985 89.9574 85.5454 90.6445 86.0095 91.0935C86.5451 91.5508 87.398 91.5791 87.9696 91.1724C88.3023 90.9364 88.4852 90.5442 88.5574 90.1535C88.6712 89.4809 88.6304 88.7968 88.6381 88.118C88.6427 87.2531 88.6435 86.3882 88.642 85.5233C88.9155 85.5203 89.1898 85.521 89.4641 85.5218C89.4764 86.7215 89.4664 87.9204 89.4695 89.12C89.4887 89.8639 89.4649 90.6713 89.0108 91.2995C88.2155 92.4433 86.3852 92.5666 85.3787 91.6374C84.8754 91.1731 84.6226 90.4883 84.6187 89.8126C84.6111 88.38 84.6172 86.9482 84.6157 85.5157ZM90.5368 85.5218C90.8334 85.5226 91.13 85.5195 91.4273 85.5164C91.4273 87.712 91.4266 89.9076 91.4273 92.1039C91.1284 92.1047 90.8303 92.1047 90.5322 92.1039C90.5291 89.9099 90.5391 87.7158 90.5368 85.5218ZM91.9606 85.5218C94.6245 85.5241 97.2877 85.5172 99.9517 85.518C99.9509 85.7807 99.9509 86.0435 99.9517 86.307C99.4407 86.3093 98.9305 86.307 98.4203 86.3078C98.418 88.2398 98.4195 90.1719 98.4195 92.1039C98.1222 92.1047 97.8256 92.1047 97.5282 92.1039C97.5267 90.1719 97.5336 88.2398 97.5252 86.3078C96.4794 86.3093 95.4336 86.307 94.3879 86.3085C94.3863 88.2406 94.3879 90.1719 94.3871 92.1039C94.1143 92.1047 93.8416 92.1047 93.5695 92.1039C93.5688 90.1719 93.5703 88.2406 93.5688 86.3085C93.0325 86.307 92.4969 86.3093 91.9606 86.307C91.9598 86.045 91.9598 85.783 91.9606 85.5218Z" fill="#BDBDBD"/>
</svg>

<svg xmlns="http://www.w3.org/2000/svg" width="167" height="111" fill="none"><path fill="#BDBDBD" d="m98.135 18.5 15.805.001c.003 1.183-.006 2.366.005 3.55-1.338.058-2.707.208-3.939.766-1.25.56-2.298 1.579-2.838 2.84Q97.56 48.18 87.962 70.704c-.11.246-.2.502-.329.74-2.291-.027-4.583-.004-6.875-.012-1.01-2.004-2.006-4.015-3.025-6.014-1.17 3.122-2.345 6.242-3.513 9.364h22.675c1.384.019 2.81-.039 4.104-.578 2.151-.862 3.864-2.527 5.258-4.333 1.683-2.188 2.96-4.65 4.098-7.154 1.276-.01 2.551.004 3.827.002a4178 4178 0 0 1-7.29 15.439H54.64c.424-1.104.827-2.217 1.282-3.31.028-.112.169-.084.254-.095 2.174-.016 4.363-.1 6.497-.551 1.11-.26 2.26-.606 3.114-1.397.451-.43.592-1.057.742-1.636l6.175-16.463c-4.35-9.242-8.715-18.479-13.068-27.72-.35-.808-.813-1.608-1.54-2.135-1.507-1.124-3.464-1.267-5.277-1.339l-.001-3.973q9.173-.002 18.346 0 .001 1.986-.001 3.973c-.797.05-1.643.038-2.364.43a.884.884 0 0 0-.477.98c.113.632.614 1.083.868 1.654q3.872 8.319 7.755 16.635 1.946-5.428 3.899-10.852c.191-.502.259-1.083.04-1.588-.17-.4-.56-.646-.943-.812-.745-.307-1.565-.304-2.354-.36a257 257 0 0 1 1.227-3.347c.097-.062.231-.015.342-.03 6.205.003 12.41 0 18.616.002a880 880 0 0 0-1.28 3.37c-1.494.07-3.035.107-4.436.69-.642.267-1.25.677-1.63 1.27-.263.435-.427.92-.604 1.393-2.592 7.05-5.209 14.09-7.772 21.15 1.42 3.2 2.9 6.372 4.348 9.559 5.26-12.383 10.518-24.767 15.784-37.148.354-.744.932-1.424.978-2.28.043-.67-.455-1.25-1.033-1.524-1.246-.573-2.646-.601-3.992-.65zm9.564 66.675a763 763 0 0 1 4.952 5.17c-.002-1.608.007-3.216.006-4.823q.426 0 .853-.006v6.883c-1.662-1.706-3.299-3.435-4.953-5.149.003 1.617-.003 3.235-.004 4.853l-.854.002zm-48.337.236c1.829-.28 3.764 1.147 3.927 3.007.154 1.064-.26 2.174-1.041 2.907-1.285 1.253-3.596 1.23-4.843-.068a3.36 3.36 0 0 1-1.017-2.526c.018-1.63 1.37-3.087 2.974-3.32m0 .842c-1.065.174-1.931 1.106-2.08 2.162-.203 1.2.54 2.492 1.702 2.884 1.017.384 2.255.023 2.908-.843.845-1.056.702-2.76-.337-3.638-.584-.53-1.428-.704-2.193-.565m13.21-.488c.938-.701 2.47-.411 3.01.65l-.677.381c-.406-.633-1.397-.788-1.943-.25-.232.169-.206.477-.182.73.067.332.42.472.68.627.672.353 1.479.556 1.95 1.195.527.713.44 1.775-.134 2.435-.6.724-1.697.9-2.536.521-.644-.317-1.042-.987-1.171-1.675.288-.068.578-.13.866-.195.03.627.517 1.26 1.181 1.272.896.097 1.609-1.064 1.087-1.805-.557-.756-1.631-.767-2.272-1.42-.755-.615-.679-1.942.142-2.466m30.588-.359c1.198-.15 2.437.402 3.173 1.348 1.061 1.323.891 3.435-.368 4.574-.719.708-1.777 1-2.769.895-.981-.064-1.9-.612-2.466-1.406-.61-.847-.768-1.978-.479-2.973.377-1.29 1.58-2.27 2.909-2.438m-.147.859c-1.322.224-2.267 1.628-2.035 2.933.147 1.256 1.342 2.278 2.606 2.254.862.014 1.684-.473 2.149-1.185.706-1.02.52-2.528-.39-3.368-.595-.601-1.515-.804-2.33-.634m-49.508-.748h.818l.001 5.836q1.017.002 2.032 0 .003.375.001.75-1.427.003-2.852 0zm10.446.006q.434-.003.867-.001c.003 1.296-.003 2.593.004 3.89.013.57.083 1.196.487 1.635.644.629 1.907.539 2.356-.276.226-.383.292-.837.286-1.275q-.006-1.986-.004-3.974.432-.002.866 0c0 1.352.003 2.704 0 4.056.001.614-.106 1.263-.5 1.756-.845 1.168-2.806 1.235-3.733.131-.44-.46-.621-1.108-.627-1.731-.004-1.404-.001-2.808-.002-4.211m5.93-.005q.426-.004.854 0v6.587l-.855-.002zm8.555.005q.47-.01.94-.007a725 725 0 0 1 1.948 4.812c.643-1.6 1.305-3.193 1.933-4.799.322-.026.645-.008.968-.013q-1.44 3.495-2.892 6.984c-.985-2.317-1.935-4.65-2.897-6.977m6.18-.007q.426.006.853.006c.01 1.276-.001 2.553.01 3.83.02.605.066 1.292.53 1.742.536.457 1.389.485 1.96.078.333-.236.516-.628.588-1.019.114-.672.073-1.356.081-2.035q.006-1.297.004-2.595.41-.004.822-.001c.012 1.2.002 2.398.005 3.598.02.744-.004 1.551-.458 2.18-.795 1.143-2.626 1.267-3.632.337-.504-.464-.756-1.149-.76-1.824-.008-1.433-.002-2.865-.003-4.297m5.92.006q.445 0 .891-.006v6.588h-.895c-.003-2.194.007-4.388.005-6.582m1.425 0c2.663.002 5.327-.005 7.99-.004v.789h-1.53q-.003 2.9-.002 5.797h-.89c-.002-1.932.005-3.864-.004-5.796H94.39v5.796h-.819v-5.796l-1.608-.001z"/></svg>
